!!!COM:	Bach, Johann Sebastian
!!!OMV:	O Gott, du frommer Gott
!!!OTL:	O Gott, du frommer Gott
**kern	**fb	**kern	**kern	**kern	**kern
*part5	*part5	*part4	*part3	*part2	*part1
*staff5	*	*staff4	*staff3	*staff2	*staff1
*I"Continuo	*	*I"Voice	*I"Voice	*I"Voice	*I"Voice
*I'Cont.	*	*I'V	*I'V	*I'V	*I'V
*clefF4	*	*clefF4	*clefGv2	*clefG2	*clefG2
*Trd0c0	*	*	*	*	*
*k[f#c#g#d#]	*	*k[f#c#g#d#]	*k[f#c#g#d#]	*k[f#c#g#d#]	*k[f#c#g#d#]
*M3/4	*	*M3/4	*M3/4	*M3/4	*M3/4
4F#	#	4F#	4A#X	4c#	4f#
=2	=2	=2	=2	=2	=2
4B	.	4B	2B	2d#	2f#
4A#X	.	4A#X	.	.	.
4G#	7	4G#	4B	4d#	4f#
=3	=3	=3	=3	=3	=3
4A#X	6	4A#X	4F#	2c#	2cc#
4G#	.	4G#	4G#	.	.
4F#	6	4F#	4A#X	4f#	4dd#
=4	=4	=4	=4	=4	=4
4G#	6	4G#	2B	4e	4ee
4E	7 5	4E	.	4b	4dd#
4F#	#	4F#	4A#X	4f#	4cc#
=5	=5	=5	=5	=5	=5
2BB;	.	2BB;	2d#;	2f#;	2b;
4F#	#	4F#	4A#X	4f#	4cc#
=6	=6	=6	=6	=6	=6
4B	.	4B	2B	2f#	2dd#
4A	.	4A	.	.	.
4G#	#6\	4G#	4B	4g#	4ee#X
=7	=7	=7	=7	=7	=7
4A	6	4A	2c#	4f#	2ff#
4G#	.	4G#	.	4g#	.
4F#	.	4F#	4c#	4a	4cc#
=8	=8	=8	=8	=8	=8
4G#	6 4	4G#	2c#	4g#	8eeL
.	.	.	.	.	8dd#J
4F#	6 5 n	4F#	.	4a	2dd#
4G#	5 #	4G#	4B#X	4g#	.
=9	=9	=9	=9	=9	=9
2C#;	#	2C#;	2G#;	2e#X;	2cc#;
4F#	.	4F#	4A	4f#	4cc#
=10	=10	=10	=10	=10	=10
4G#	6	4G#	4B	4en	2ee
4E	.	4E	4e	4g#	.
4A	.	4A	4e	4a	4cc#
=11	=11	=11	=11	=11	=11
4D#	6	4D#	4f#	2f#	2b
4BB	7	4BB	4d#	.	.
4E	.	4E	4B	4e	4g#
=12	=12	=12	=12	=12	=12
!!linebreak:original
4C#	6	4C#	4A	2e	4a
4AA	7 5	4AA	4c#	.	4g#
4BB	.	4BB	4F#	4d#	4f#
=13	=13	=13	=13	=13	=13
2E;	.	2E;	2G#;	2B;	2e;
4Dn	6 4 2	4Dn	4G#	4B	4e
=14	=14	=14	=14	=14	=14
4C#	6	4C#	2A	4e	2a
4c#	.	4c#	.	4f#	.
4B	6	4B	4dn	4g#	4b
=15	=15	=15	=15	=15	=15
4A	.	4A	4e	2a	2cc#
4D#	7 5	4D#	4f#	.	.
4E#X	6 5	4E#X	4c#	4g#	4b
=16	=16	=16	=16	=16	=16
4F#	.	4F#	4c#	4f#	4a
4G#	6	4G#	4B	4b	2ee
4E	.	4En	4e	4g#	.
=17	=17	=17	=17	=17	=17
2A;	.	2A;	2e;	2a;	2cc#;
4Dn	6	4Dn	4B	4f#	4b
=18	=18	=18	=18	=18	=18
4C#	6 4	4C#	4c#	2f#	4a
4BB	6 5	4BB	4dn	.	2g#
4C#	5 #	4C#	4c#	4e#X	.
=19	=19	=19	=19	=19	=19
2FF#;	.	2FF#;	2A#X;	2c#;	2f#;
=||	=||	=||	=||	=||	=||
*-	*-	*-	*-	*-	*-
!!!system-decoration: s1,s2,s3,s4,s5
